apps/scalable/calligrakexi.svg

<?xml version="1.0" encoding="UTF-8" standalone="no"?>
<!-- Created using Karbon, part of Calligra: http://www.calligra.org/karbon -->

<svg
   xmlns:dc="http://purl.org/dc/elements/1.1/"
   xmlns:cc="http://creativecommons.org/ns#"
   xmlns:rdf="http://www.w3.org/1999/02/22-rdf-syntax-ns#"
   xmlns:svg="http://www.w3.org/2000/svg"
   xmlns="http://www.w3.org/2000/svg"
   xmlns:sodipodi="http://sodipodi.sourceforge.net/DTD/sodipodi-0.dtd"
   xmlns:inkscape="http://www.inkscape.org/namespaces/inkscape"
   width="38.4pt"
   height="38.4pt"
   id="svg2"
   version="1.1"
   inkscape:version="0.48.4 r9939"
   sodipodi:docname="calligrakexi.svg">
  <metadata
     id="metadata18">
    <rdf:RDF>
      <cc:Work
         rdf:about="">
        <dc:format>image/svg+xml</dc:format>
        <dc:type
           rdf:resource="http://purl.org/dc/dcmitype/StillImage" />
        <dc:title />
      </cc:Work>
    </rdf:RDF>
  </metadata>
  <sodipodi:namedview
     pagecolor="#ffffff"
     bordercolor="#666666"
     borderopacity="1"
     objecttolerance="10"
     gridtolerance="10"
     guidetolerance="10"
     inkscape:pageopacity="0"
     inkscape:pageshadow="2"
     inkscape:window-width="630"
     inkscape:window-height="604"
     id="namedview16"
     showgrid="false"
     inkscape:showpageshadow="false"
     borderlayer="true"
     inkscape:zoom="6.9532164"
     inkscape:cx="31.208153"
     inkscape:cy="26.859433"
     inkscape:window-x="1161"
     inkscape:window-y="171"
     inkscape:window-maximized="0"
     inkscape:current-layer="svg2">
    <sodipodi:guide
       position="9.5367432e-07,48.000001"
       orientation="47.999999,0"
       id="guide4076" />
    <sodipodi:guide
       position="9.5367432e-07,1.9073486e-06"
       orientation="0,47.999999"
       id="guide4078" />
    <sodipodi:guide
       position="48,1.9073486e-06"
       orientation="-47.999999,0"
       id="guide4080" />
    <sodipodi:guide
       position="48,48.000001"
       orientation="0,-47.999999"
       id="guide4082" />
    <sodipodi:guide
       position="4.000001,44.000001"
       orientation="39.999999,0"
       id="guide4084" />
    <sodipodi:guide
       position="4.000001,4.0000019"
       orientation="0,39.999999"
       id="guide4086" />
    <sodipodi:guide
       position="44,4.0000019"
       orientation="-39.999999,0"
       id="guide4088" />
    <sodipodi:guide
       position="44,44.000001"
       orientation="0,-39.999999"
       id="guide4090" />
    <sodipodi:guide
       position="4.000001,44.000001"
       orientation="39.999999,0"
       id="guide4102" />
    <sodipodi:guide
       position="4.000001,4.0000019"
       orientation="0,4"
       id="guide4104" />
    <sodipodi:guide
       position="8.000001,4.0000019"
       orientation="-39.999999,0"
       id="guide4106" />
    <sodipodi:guide
       position="8.000001,44.000001"
       orientation="0,-4"
       id="guide4108" />
    <sodipodi:guide
       position="7.999999,44.000001"
       orientation="39.999999,0"
       id="guide4110" />
    <sodipodi:guide
       position="7.999999,4.0000019"
       orientation="0,4"
       id="guide4112" />
    <sodipodi:guide
       position="11.999999,4.0000019"
       orientation="-39.999999,0"
       id="guide4114" />
    <sodipodi:guide
       position="11.999999,44.000001"
       orientation="0,-4"
       id="guide4116" />
    <sodipodi:guide
       position="4.000001,44.000001"
       orientation="2,0"
       id="guide4122" />
    <sodipodi:guide
       position="4.000001,42.000001"
       orientation="0,39.999999"
       id="guide4124" />
    <sodipodi:guide
       position="44,42.000001"
       orientation="-2,0"
       id="guide4126" />
    <sodipodi:guide
       position="44,44.000001"
       orientation="0,-39.999999"
       id="guide4128" />
    <sodipodi:guide
       position="4.000001,36.000001"
       orientation="2,0"
       id="guide4130" />
    <sodipodi:guide
       position="4.000001,34.000001"
       orientation="0,39.999999"
       id="guide4132" />
    <sodipodi:guide
       position="44,34.000001"
       orientation="-2,0"
       id="guide4134" />
    <sodipodi:guide
       position="44,36.000001"
       orientation="0,-39.999999"
       id="guide4136" />
  </sodipodi:namedview>
  <defs
     id="defs4" />
  <path
     style="fill:#34495e;fill-opacity:1;stroke:none"
     d="M 4,4 4,14 44,14 44,4 4,4 z m 4,2 4,0 0,6 -4,0 0,-6 z"
     id="rect4092"
     inkscape:connector-curvature="0" />
  <path
     id="path4141"
     d="m 4,19 0,10 40,0 0,-10 -40,0 z m 4,2 4,0 0,6 -4,0 0,-6 z"
     style="fill:#34495e;fill-opacity:1;stroke:none"
     inkscape:connector-curvature="0" />
  <path
     inkscape:connector-curvature="0"
     style="fill:#34495e;fill-opacity:1;stroke:none"
     d="m 4,34 0,10 40,0 0,-10 -40,0 z m 4,2 4,0 0,6 -4,0 0,-6 z"
     id="path4143" />
  <path
     style="fill:#bdc3c7;fill-opacity:1;stroke:none"
     d="m 37,4 0,10 7,0 0,-10 -7,0 z"
     id="rect4149"
     inkscape:connector-curvature="0" />
  <path
     id="path4154"
     d="m 37,19 0,10 7,0 0,-10 -7,0 z"
     style="fill:#bdc3c7;fill-opacity:1;stroke:none"
     inkscape:connector-curvature="0" />
  <path
     inkscape:connector-curvature="0"
     style="fill:#bdc3c7;fill-opacity:1;stroke:none"
     d="m 37,34 0,10 7,0 0,-10 -7,0 z"
     id="path4156" />
  <path
     id="path4158"
     d="M 4,4 4,14 8,14 8,4 z"
     style="fill:#c0392b;fill-opacity:1;stroke:none"
     inkscape:connector-curvature="0"
     sodipodi:nodetypes="ccccc" />
  <path
     inkscape:connector-curvature="0"
     style="fill:#c0392b;fill-opacity:1;stroke:none"
     d="M 4,19 4,29 8,29 8,19 z"
     id="path4160"
     sodipodi:nodetypes="ccccc" />
  <path
     id="path4162"
     d="M 4,34 4,44 8,44 8,34 z"
     style="fill:#c0392b;fill-opacity:1;stroke:none"
     inkscape:connector-curvature="0"
     sodipodi:nodetypes="ccccc" />
</svg>

<?xml version="1.0" encoding="UTF-8" standalone="no"?>
<!-- Created using Karbon, part of Calligra: http://www.calligra.org/karbon -->

<svg
   xmlns:dc="http://purl.org/dc/elements/1.1/"
   xmlns:cc="http://creativecommons.org/ns#"
   xmlns:rdf="http://www.w3.org/1999/02/22-rdf-syntax-ns#"
   xmlns:svg="http://www.w3.org/2000/svg"
   xmlns="http://www.w3.org/2000/svg"
   xmlns:sodipodi="http://sodipodi.sourceforge.net/DTD/sodipodi-0.dtd"
   xmlns:inkscape="http://www.inkscape.org/namespaces/inkscape"
   width="38.4pt"
   height="38.4pt"
   id="svg2"
   version="1.1"
   inkscape:version="0.49 r12742"
   sodipodi:docname="calligrakexi.svg">
  <metadata
     id="metadata18">
    <rdf:RDF>
      <cc:Work
         rdf:about="">
        <dc:format>image/svg+xml</dc:format>
        <dc:type
           rdf:resource="http://purl.org/dc/dcmitype/StillImage" />
        <dc:title></dc:title>
      </cc:Work>
    </rdf:RDF>
  </metadata>
  <sodipodi:namedview
     pagecolor="#ffffff"
     bordercolor="#666666"
     borderopacity="1"
     objecttolerance="10"
     gridtolerance="10"
     guidetolerance="10"
     inkscape:pageopacity="0"
     inkscape:pageshadow="2"
     inkscape:window-width="1366"
     inkscape:window-height="718"
     id="namedview16"
     showgrid="false"
     inkscape:showpageshadow="false"
     borderlayer="true"
     inkscape:zoom="6.9532164"
     inkscape:cx="31.208153"
     inkscape:cy="26.859433"
     inkscape:window-x="-2"
     inkscape:window-y="23"
     inkscape:window-maximized="1"
     inkscape:current-layer="svg2">
    <sodipodi:guide
       position="9.5367432e-07,48.000001"
       orientation="47.999999,0"
       id="guide4076" />
    <sodipodi:guide
       position="9.5367432e-07,1.9073486e-06"
       orientation="0,47.999999"
       id="guide4078" />
    <sodipodi:guide
       position="48,1.9073486e-06"
       orientation="-47.999999,0"
       id="guide4080" />
    <sodipodi:guide
       position="48,48.000001"
       orientation="0,-47.999999"
       id="guide4082" />
    <sodipodi:guide
       position="4.000001,44.000001"
       orientation="39.999999,0"
       id="guide4084" />
    <sodipodi:guide
       position="4.000001,4.0000019"
       orientation="0,39.999999"
       id="guide4086" />
    <sodipodi:guide
       position="44,4.0000019"
       orientation="-39.999999,0"
       id="guide4088" />
    <sodipodi:guide
       position="44,44.000001"
       orientation="0,-39.999999"
       id="guide4090" />
    <sodipodi:guide
       position="4.000001,44.000001"
       orientation="39.999999,0"
       id="guide4102" />
    <sodipodi:guide
       position="4.000001,4.0000019"
       orientation="0,4"
       id="guide4104" />
    <sodipodi:guide
       position="8.000001,4.0000019"
       orientation="-39.999999,0"
       id="guide4106" />
    <sodipodi:guide
       position="8.000001,44.000001"
       orientation="0,-4"
       id="guide4108" />
    <sodipodi:guide
       position="7.999999,44.000001"
       orientation="39.999999,0"
       id="guide4110" />
    <sodipodi:guide
       position="7.999999,4.0000019"
       orientation="0,4"
       id="guide4112" />
    <sodipodi:guide
       position="11.999999,4.0000019"
       orientation="-39.999999,0"
       id="guide4114" />
    <sodipodi:guide
       position="11.999999,44.000001"
       orientation="0,-4"
       id="guide4116" />
    <sodipodi:guide
       position="4.000001,44.000001"
       orientation="2,0"
       id="guide4122" />
    <sodipodi:guide
       position="4.000001,42.000001"
       orientation="0,39.999999"
       id="guide4124" />
    <sodipodi:guide
       position="44,42.000001"
       orientation="-2,0"
       id="guide4126" />
    <sodipodi:guide
       position="44,44.000001"
       orientation="0,-39.999999"
       id="guide4128" />
    <sodipodi:guide
       position="4.000001,36.000001"
       orientation="2,0"
       id="guide4130" />
    <sodipodi:guide
       position="4.000001,34.000001"
       orientation="0,39.999999"
       id="guide4132" />
    <sodipodi:guide
       position="44,34.000001"
       orientation="-2,0"
       id="guide4134" />
    <sodipodi:guide
       position="44,36.000001"
       orientation="0,-39.999999"
       id="guide4136" />
  </sodipodi:namedview>
  <defs
     id="defs4" />
  <path
     style="fill:#bdc3c7;fill-opacity:1;stroke:none"
     d="M 4 4 L 4 14 L 44 14 L 44 4 L 4 4 z M 8 6 L 12 6 L 12 12 L 8 12 L 8 6 z "
     id="rect4092" />
  <path
     id="path4141"
     d="m 4,19 0,10 40,0 0,-10 -40,0 z m 4,2 4,0 0,6 -4,0 0,-6 z"
     style="fill:#bdc3c7;fill-opacity:1;stroke:none"
     inkscape:connector-curvature="0" />
  <path
     inkscape:connector-curvature="0"
     style="fill:#bdc3c7;fill-opacity:1;stroke:none"
     d="m 4,34 0,10 40,0 0,-10 -40,0 z m 4,2 4,0 0,6 -4,0 0,-6 z"
     id="path4143" />
  <path
     style="fill:#ecf0f1;fill-opacity:1;stroke:none"
     d="M 37 4 L 37 14 L 44 14 L 44 4 L 37 4 z "
     id="rect4149" />
  <path
     id="path4154"
     d="m 37,19 0,10 7,0 0,-10 -7,0 z"
     style="fill:#ecf0f1;fill-opacity:1;stroke:none"
     inkscape:connector-curvature="0" />
  <path
     inkscape:connector-curvature="0"
     style="fill:#ecf0f1;fill-opacity:1;stroke:none"
     d="m 37,34 0,10 7,0 0,-10 -7,0 z"
     id="path4156" />
  <path
     id="path4158"
     d="M 4,4 4,14 8,14 8,4 Z"
     style="fill:#95a5a6;fill-opacity:1;stroke:none"
     inkscape:connector-curvature="0"
     sodipodi:nodetypes="ccccc" />
  <path
     inkscape:connector-curvature="0"
     style="fill:#95a5a6;fill-opacity:1;stroke:none"
     d="M 4,19 4,29 8,29 8,19 Z"
     id="path4160"
     sodipodi:nodetypes="ccccc" />
  <path
     id="path4162"
     d="M 4,34 4,44 8,44 8,34 Z"
     style="fill:#95a5a6;fill-opacity:1;stroke:none"
     inkscape:connector-curvature="0"
     sodipodi:nodetypes="ccccc" />
</svg>
